krita/pics/svg/dark_config-popup-palette.svg

<?xml version="1.0" encoding="UTF-8" standalone="no"?>
<svg
   xmlns:dc="http://purl.org/dc/elements/1.1/"
   xmlns:cc="http://creativecommons.org/ns#"
   xmlns:rdf="http://www.w3.org/1999/02/22-rdf-syntax-ns#"
   xmlns:svg="http://www.w3.org/2000/svg"
   xmlns="http://www.w3.org/2000/svg"
   width="32"
   height="32"
   viewBox="0 0 32 32"
   version="1.1"
   id="svg820">
  <defs
     id="defs814" />
  <metadata
     id="metadata817">
    <rdf:RDF>
      <cc:Work
         rdf:about="">
        <dc:format>image/svg+xml</dc:format>
        <dc:type
           rdf:resource="http://purl.org/dc/dcmitype/StillImage" />
        <dc:title></dc:title>
        <dc:date>2021</dc:date>
        <dc:creator>
          <cc:Agent>
            <dc:title>Timothée Giet</dc:title>
          </cc:Agent>
        </dc:creator>
        <cc:license
           rdf:resource="http://creativecommons.org/licenses/by-sa/4.0/" />
      </cc:Work>
      <cc:License
         rdf:about="http://creativecommons.org/licenses/by-sa/4.0/">
        <cc:permits
           rdf:resource="http://creativecommons.org/ns#Reproduction" />
        <cc:permits
           rdf:resource="http://creativecommons.org/ns#Distribution" />
        <cc:requires
           rdf:resource="http://creativecommons.org/ns#Notice" />
        <cc:requires
           rdf:resource="http://creativecommons.org/ns#Attribution" />
        <cc:permits
           rdf:resource="http://creativecommons.org/ns#DerivativeWorks" />
        <cc:requires
           rdf:resource="http://creativecommons.org/ns#ShareAlike" />
      </cc:License>
    </rdf:RDF>
  </metadata>
  <path
     id="path1271"
     d="M 16 0 A 16 16 0 0 0 0 16 A 16 16 0 0 0 16 32 A 16 16 0 0 0 32 16 A 16 16 0 0 0 16 0 z M 16 8 A 8 8 0 0 1 24 16 A 8 8 0 0 1 16 24 A 8 8 0 0 1 8 16 A 8 8 0 0 1 16 8 z "
     style="fill:#373737;fill-opacity:0.25098041;stroke:none;stroke-width:0.5;stroke-linejoin:bevel;stroke-miterlimit:4;stroke-dasharray:none;stroke-dashoffset:0;stroke-opacity:1" />
  <path
     id="path820-1"
     d="M 16 0 A 16 16 0 0 0 0 16 A 16 16 0 0 0 16 32 A 16 16 0 0 0 32 16 A 16 16 0 0 0 16 0 z M 16 1 A 3 3 0 0 1 19 4 A 3 3 0 0 1 16 7 A 3 3 0 0 1 13 4 A 3 3 0 0 1 16 1 z M 23.138672 3.2929688 A 3 3 0 0 1 24.816406 3.8652344 A 3 3 0 0 1 25.480469 8.0546875 A 3 3 0 0 1 21.291016 8.71875 A 3 3 0 0 1 20.626953 4.5292969 A 3 3 0 0 1 22.925781 3.2949219 A 3 3 0 0 1 23.138672 3.2929688 z M 9.0742188 3.2949219 A 3 3 0 0 1 11.373047 4.5292969 A 3 3 0 0 1 10.708984 8.71875 A 3 3 0 0 1 6.5195312 8.0546875 A 3 3 0 0 1 7.1835938 3.8652344 A 3 3 0 0 1 9.0742188 3.2949219 z M 16 9 A 7 7 0 0 1 23 16 A 7 7 0 0 1 16 23 A 7 7 0 0 1 9 16 A 7 7 0 0 1 16 9 z M 4.6289062 9.2929688 A 3 3 0 0 1 5.5136719 9.4394531 A 3 3 0 0 1 7.4414062 13.21875 A 3 3 0 0 1 3.6601562 15.144531 A 3 3 0 0 1 1.734375 11.365234 A 3 3 0 0 1 4.6289062 9.2929688 z M 27.371094 9.2929688 A 3 3 0 0 1 30.265625 11.365234 A 3 3 0 0 1 28.339844 15.144531 A 3 3 0 0 1 24.558594 13.21875 A 3 3 0 0 1 26.486328 9.4394531 A 3 3 0 0 1 27.371094 9.2929688 z M 16 11 A 5 5 0 0 0 11 16 A 5 5 0 0 0 16 21 A 5 5 0 0 0 21 16 A 5 5 0 0 0 16 11 z M 16 11.333984 L 20 18.263672 L 12 18.263672 L 16 11.333984 z M 4.5449219 16.708984 A 3 3 0 0 1 7.4414062 18.78125 A 3 3 0 0 1 5.5136719 22.560547 A 3 3 0 0 1 1.734375 20.634766 A 3 3 0 0 1 3.6601562 16.855469 A 3 3 0 0 1 4.5449219 16.708984 z M 27.455078 16.708984 A 3 3 0 0 1 28.339844 16.855469 A 3 3 0 0 1 30.265625 20.634766 A 3 3 0 0 1 26.486328 22.560547 A 3 3 0 0 1 24.558594 18.78125 A 3 3 0 0 1 27.455078 16.708984 z M 9.03125 22.708984 A 3 3 0 0 1 10.708984 23.28125 A 3 3 0 0 1 11.373047 27.470703 A 3 3 0 0 1 7.1835938 28.134766 A 3 3 0 0 1 6.5195312 23.945312 A 3 3 0 0 1 8.8183594 22.710938 A 3 3 0 0 1 9.03125 22.708984 z M 23.181641 22.710938 A 3 3 0 0 1 25.480469 23.945312 A 3 3 0 0 1 24.816406 28.134766 A 3 3 0 0 1 20.626953 27.470703 A 3 3 0 0 1 21.291016 23.28125 A 3 3 0 0 1 23.181641 22.710938 z M 16 25 A 3 3 0 0 1 19 28 A 3 3 0 0 1 16 31 A 3 3 0 0 1 13 28 A 3 3 0 0 1 16 25 z "
     style="fill:#373737;fill-opacity:1;stroke:none;stroke-width:0.5;stroke-linejoin:bevel;stroke-miterlimit:4;stroke-dasharray:none;stroke-dashoffset:0;stroke-opacity:1" />
</svg>

<svg xmlns:dc="http://purl.org/dc/elements/1.1/" xmlns:cc="http://creativecommons.org/ns#" xmlns:rdf="http://www.w3.org/1999/02/22-rdf-syntax-ns#" xmlns="http://www.w3.org/2000/svg" width="32" height="32" viewBox="0 0 32 32" version="1.1" id="svg820"><metadata id="metadata817"><rdf:RDF><cc:Work><dc:format>image/svg+xml</dc:format><dc:type rdf:resource="http://purl.org/dc/dcmitype/StillImage"/><dc:title/><dc:date>2021</dc:date><dc:creator><cc:Agent><dc:title>Timothée Giet</dc:title></cc:Agent></dc:creator><cc:license rdf:resource="http://creativecommons.org/licenses/by-sa/4.0/"/></cc:Work><cc:License rdf:about="http://creativecommons.org/licenses/by-sa/4.0/"><cc:permits rdf:resource="http://creativecommons.org/ns#Reproduction"/><cc:permits rdf:resource="http://creativecommons.org/ns#Distribution"/><cc:requires rdf:resource="http://creativecommons.org/ns#Notice"/><cc:requires rdf:resource="http://creativecommons.org/ns#Attribution"/><cc:permits rdf:resource="http://creativecommons.org/ns#DerivativeWorks"/><cc:requires rdf:resource="http://creativecommons.org/ns#ShareAlike"/></cc:License></rdf:RDF></metadata><path id="path1271" d="M16 0A16 16 0 0 0 0 16a16 16 0 0 0 16 16 16 16 0 0 0 16-16A16 16 0 0 0 16 0zm0 8a8 8 0 0 1 8 8 8 8 0 0 1-8 8 8 8 0 0 1-8-8 8 8 0 0 1 8-8z" style="fill:#373737;fill-opacity:.25098041;stroke:none;stroke-width:.5;stroke-linejoin:bevel;stroke-miterlimit:4;stroke-dasharray:none;stroke-dashoffset:0;stroke-opacity:1"/><path id="path820-1" d="M16 0A16 16 0 0 0 0 16a16 16 0 0 0 16 16 16 16 0 0 0 16-16A16 16 0 0 0 16 0zm0 1a3 3 0 0 1 3 3 3 3 0 0 1-3 3 3 3 0 0 1-3-3 3 3 0 0 1 3-3zm7.139 2.293a3 3 0 0 1 1.677.572 3 3 0 0 1 .664 4.19 3 3 0 0 1-4.189.664 3 3 0 0 1-.664-4.19 3 3 0 0 1 2.299-1.234 3 3 0 0 1 .213-.002zm-14.065.002a3 3 0 0 1 2.299 1.234 3 3 0 0 1-.664 4.19 3 3 0 0 1-4.19-.664 3 3 0 0 1 .665-4.19 3 3 0 0 1 1.89-.57zM16 9a7 7 0 0 1 7 7 7 7 0 0 1-7 7 7 7 0 0 1-7-7 7 7 0 0 1 7-7zm-11.371.293a3 3 0 0 1 .885.146 3 3 0 0 1 1.927 3.78 3 3 0 0 1-3.78 1.926 3 3 0 0 1-1.927-3.78A3 3 0 0 1 4.63 9.293zm22.742 0a3 3 0 0 1 2.895 2.072 3 3 0 0 1-1.926 3.78 3 3 0 0 1-3.781-1.926 3 3 0 0 1 1.927-3.78 3 3 0 0 1 .885-.146zM16 11a5 5 0 0 0-5 5 5 5 0 0 0 5 5 5 5 0 0 0 5-5 5 5 0 0 0-5-5zm0 .334 4 6.93h-8l4-6.93zM4.545 16.709a3 3 0 0 1 2.896 2.072 3 3 0 0 1-1.927 3.78 3 3 0 0 1-3.78-1.926 3 3 0 0 1 1.926-3.78 3 3 0 0 1 .885-.146zm22.91 0a3 3 0 0 1 .885.146 3 3 0 0 1 1.926 3.78 3 3 0 0 1-3.78 1.926 3 3 0 0 1-1.927-3.78 3 3 0 0 1 2.896-2.072zm-18.424 6a3 3 0 0 1 1.678.572 3 3 0 0 1 .664 4.19 3 3 0 0 1-4.19.664 3 3 0 0 1-.663-4.19 3 3 0 0 1 2.298-1.234 3 3 0 0 1 .213-.002zm14.15.002a3 3 0 0 1 2.3 1.234 3 3 0 0 1-.665 4.19 3 3 0 0 1-4.189-.664 3 3 0 0 1 .664-4.19 3 3 0 0 1 1.89-.57zM16 25a3 3 0 0 1 3 3 3 3 0 0 1-3 3 3 3 0 0 1-3-3 3 3 0 0 1 3-3z" style="fill:#373737;fill-opacity:1;stroke:none;stroke-width:.5;stroke-linejoin:bevel;stroke-miterlimit:4;stroke-dasharray:none;stroke-dashoffset:0;stroke-opacity:1"/></svg>
